!!!COM: Palestrina, Giovanni Perluigi da
!!!OPR: Missa Aeterna Christi munera
!!!OMD: Credo
!!!OTL: First Section
**kern	**kern	**kern	**kern
*Ibass	*Itenor	*Icalto	*Icant
!Bassus	!Tenor	!Altus	!Cantus
*clefF4	*clefGv2	*clefG2	*clefG2
*k[b-]	*k[b-]	*k[b-]	*k[b-]
*F:ion	*F:ion	*F:ion	*F:ion
*M4/2	*M4/2	*M4/2	*M4/2
=1	=1	=1	=1
0r	1F	1c	1r
.	2F	2c	1f
.	2F	2c	.
=2	=2	=2	=2
0r	2B-	2d	2f
.	2d	2d	2f
.	1c	1e	2g
.	.	.	2g
=3	=3	=3	=3
0r	2A	2c	1a
.	2F	2c	.
.	2.B-	1d	2f
.	.	.	2f
.	4A	.	.
=4	=4	=4	=4
0r	2G	2e	2g
.	2F	2f	2a
.	1G	2d	1b-
.	.	[2g	.
=5	=5	=5	=5
0r	2E-	2g]	2b-
.	2F	2.f	2a
.	1c	.	1g
.	.	8e	.
.	.	8d	.
.	.	2e	.
=6	=6	=6	=6
2r	1F	0f	4f
.	.	.	4g
1F	.	.	4a
.	.	.	4b-
.	2r	.	2.a
2F	[2c	.	.
.	.	.	8g
.	.	.	8f
=7	=7	=7	=7
2.A	2c]	0r	1e
.	2c	.	.
4B	.	.	.
2c	2e	.	1r
2d	2f	.	.
=8	=8	=8	=8
2B	1g	0r	0r
1c	.	.	.
.	2e	.	.
2A	2f	.	.
=9	=9	=9	=9
2B	2d	0r	0r
2c	1e	.	.
2A	.	.	.
4F	2f	.	.
4G	.	.	.
=10	=10	=10	=10
4A	2c	1r	0r
4B	.	.	.
1c	2e	.	.
.	2.d	2r	.
2B	.	[2g	.
.	4d	.	.
=11	=11	=11	=11
1c	1c	2g]	2r
.	.	2e	1cc
1r	1r	1f	.
.	.	.	2a
=12	=12	=12	=12
0r	0r	2d	2b-
.	.	2e	2g
.	.	2f	2a
.	.	2g	2b-
=13	=13	=13	=13
0r	2r	2a	2cc
.	1B-	2f	1dd
.	.	2g	.
.	2c	[2a	2cc
=14	=14	=14	=14
1r	2d	4a]	1b-
.	.	8g	.
.	.	8f	.
.	2e	2g	.
2r	2.f	2a	2a
2F	.	2a	2f
.	4e	.	.
=15	=15	=15	=15
2F	1d	2a	2a
2G	.	2g	2b-
2A	1r	1f	2cc
2B-	.	.	2dd
=16	=16	=16	=16
4c	2r	1e	2.cc
4B-	.	.	.
4A	1c	.	.
4G	.	.	4b-
2F	.	2f	2a
2G	2B	2d	[2g
=17	=17	=17	=17
2E	4c	2.c	2g]
.	4B-	.	.
2F	4A	.	1f
.	8G	4c	.
.	8F	.	.
1C	2G	[1c	.
.	2G	.	2e
=18	=18	=18	=18
2r	2F	1c]	0f
1F	1A	.	.
.	.	1r	.
2D	2B-	.	.
=19	=19	=19	=19
2E	2c	0r	0r
2F	2d	.	.
1G	1B-	.	.
=20	=20	=20	=20
1F	1c	2r	1.a
.	.	1f	.
1r	1r	.	.
.	.	2d	2b-
=21	=21	=21	=21
0r	0r	2e	2cc
.	.	2f	2dd
.	.	2g	2b-
.	.	[2a	[2cc
=22	=22	=22	=22
1r	1F	2a]	2cc]
.	.	2f	2a
2r	2c	1e	2g
2C	2c	.	2cc
=23	=23	=23	=23
2G	1d	2r	2b
2G	.	2g	2b
1A	1c	2e	1cc
.	.	2e	.
=24	=24	=24	=24
1F	2r	1f	1a
.	2F	.	.
2r	2c	1e	2r
2C	2c	.	2cc
=25	=25	=25	=25
2G	2d	2r	2b
2G	2d	2g	2b
2A	1c	2e	2cc
2A	.	2e	2cc
=26	=26	=26	=26
1F	2r	2f	1a
.	2F	2f	.
2r	1c	1e	2r
2C	.	.	2cc
=27	=27	=27	=27
1G	1d	2r	1b
.	.	2g	.
1A	1c	1e	1cc
=28	=28	=28	=28
1.F	2r	2f	2a
.	2A	2f	2cc
.	2f	1a	2cc
2D	2f	.	[2dd
=29	=29	=29	=29
2A	2e	2a	4dd]
.	.	.	4cc
2A	4d	2f	1cc
.	4c	.	.
1G	1d	1g	.
.	.	.	2b
=30	=30	=30	=30
0C	0c	1e	1cc
.	.	2.e	2.g
.	.	4e	4g
=31	=31	=31	=31
0r	0r	2f	2a
.	.	2d	2b-
.	.	2e	2cc
.	.	2f	2a
=32	=32	=32	=32
0r	0r	2g	2b-
.	.	2e	2cc
.	.	2f	2.dd
.	.	2g	.
.	.	.	4b-
=33	=33	=33	=33
0r	0r	2a	2cc
.	.	2f	2dd
.	.	1g	1b-
=34	=34	=34	=34
0r	2r	2f	2a
.	1F	1a	1cc
.	2G	2g	2b-
=35	=35	=35	=35
0r	2A	2.f	2.a
.	2F	.	.
.	.	4f	4a
.	2c	2e	2g
.	[2G	[2g	[2b-
=36	=36	=36	=36
1r	2G]	2g]	2b-]
.	2d	2f#	2a
1D	1d	2f#	1a
.	.	2d	.
=37	=37	=37	=37
2E	0r	2c	0r
2F#	.	2A	.
1G	.	1B-	.
=38	=38	=38	=38
2F	2r	2c	2r
2E	2G	2c	2g
1D	2A	1d	2f
.	2B	.	2d
=39	=39	=39	=39
1r	1c	1r	1e
2r	2B-	2r	2f
2c	2A	2c	2f
=40	=40	=40	=40
2B-	1G	2d	1g
2G	.	2e	.
1A	1F	1f	1c
=41	=41	=41	=41
1B	0r	1d	1r
2c	.	2e	1g
2C	.	2e	.
=42	=42	=42	=42
2C	1c	2e	2g
2C	.	2e	2g
1F	2c	1f	1a
.	2c	.	.
=43	=43	=43	=43
1D	1d	1f	1b
1C	1e	1g	2.cc
.	.	.	4b-
=44	=44	=44	=44
1F	0f	2r	1.a
.	.	2c	.
2F	.	2c	.
2F	.	2c	2f
=45	=45	=45	=45
1B-	2r	1d	2f
.	2B-	.	2f
1G	2B-	1e	1g
.	2B-	.	.
=46	=46	=46	=46
1F	1c	1f	1a
1B-	1d	1f	2b-
.	.	.	[2b-
=47	=47	=47	=47
1E-	1e-	1g	2b-]
.	.	.	2b-
1E-	2.e-	1g	[1b-
.	4e-	.	.
=48	=48	=48	=48
1F	2d	1f	2b-]
.	2c	.	2a
2.G	2.B	2.d	2.g
4G	4B	4d	4f
=49	=49	=49	=49
2C	1.c	1e	2g
2C	.	.	2g
1F	.	1f	1a
.	2A	.	.
=50	=50	=50	=50
1BB-	2B-	1.d	2f
.	2B-	.	2.g
1D	2A	.	.
.	.	.	4f
.	4G	2B-	[2f
.	4F	.	.
=51	=51	=51	=51
1C	2G	2c	2f]
.	2G	2c	2e
1F	[1A	1c	[1f
=52	=52	=52	=52
2r	1A]	2r	1f]
1F	.	1f	.
.	1r	.	2r
2F	.	2f	[2cc
=53	=53	=53	=53
1A	0r	2e	2cc]
.	.	2c	2cc
1G	.	[1d	2b-
.	.	.	2g
=54	=54	=54	=54
2.F	0r	2d]	1.a
.	.	2c	.
4F	.	.	.
2F	.	2d	.
2E	.	2e	2g
=55	=55	=55	=55
1D	1r	1f	2a
.	.	.	2b
1C	2r	2e	1cc
.	2c	2e	.
=56	=56	=56	=56
0r	2.d	2.f	2a
.	.	.	2a
.	4d	4f	.
.	2B-	2d	2.b-
.	2G	2g	.
.	.	.	4b-
=57	=57	=57	=57
1r	1d	1f	2a
.	.	.	2f
2r	1c	1e	1g
[2c	.	.	.
=58	=58	=58	=58
2c]	1F	2r	1a
2A	.	1a	.
1B-	1r	.	2r
.	.	2g	[2dd
=59	=59	=59	=59
1A	0r	2f	2dd]
.	.	2e	2cc
2B-	.	2d	2b-
2F	.	2f	2a
=60	=60	=60	=60
4c	0r	2e	2g
4B-	.	.	.
4A	.	2.a	2.cc
4G	.	.	.
1F	.	.	.
.	.	4g	4b-
.	.	[2f	2a
=61	=61	=61	=61
1C	1r	2f]	[0g
.	.	4e	.
.	.	4d	.
2r	1c	1e	.
2c	.	.	.
=62	=62	=62	=62
2B-	2d	0r	1g]
2G	2e	.	.
2.A	2f	.	1r
.	2e	.	.
4G	.	.	.
=63	=63	=63	=63
2F	2.a	0r	1r
2E	.	.	.
.	4g	.	.
2D	2f	.	2r
2C	2e	.	[2cc
=64	=64	=64	=64
1G	1.d	2r	2cc]
.	.	1g	2b-
1D	.	.	2a
.	2A	2f	2a
=65	=65	=65	=65
0r	2c	2e	1g
.	4G	2e	.
.	4G	.	.
.	1B-	1d	2f
.	.	.	2f
=66	=66	=66	=66
0r	1F	2c	2a
.	.	2c	2.cc
.	1r	2e	.
.	.	.	4cc
.	.	[2g	2b-
=67	=67	=67	=67
1r	0r	4g]	1dd
.	.	4g	.
.	.	2f	.
2r	.	1a	2cc
2F	.	.	2a
=68	=68	=68	=68
2A	0r	2a	2cc
2c	.	2e	2cc
2c	.	2e	2g
2B-	.	2g	2b-
=69	=69	=69	=69
2d	0r	2f	2a
4c	.	2e	1cc
4B-	.	.	.
2A	.	2a	.
2B-	.	4g	4b-
.	.	4f	4a
=70	=70	=70	=70
1c	2r	2e	4g
.	.	.	4e
.	2F	2.f	2a
2r	2.c	.	1g
.	.	8e	.
.	.	8d	.
2C	.	2e	.
.	4c	.	.
=71	=71	=71	=71
2.F	2c	1f	1a
.	2c	.	.
4F	.	.	.
2F	2d	1r	1r
2G	2e	.	.
=72	=72	=72	=72
2A	1.f	1r	2r
2B-	.	.	2d
1c	.	2r	2.g
.	4e	2c	.
.	4d	.	4g
=73	=73	=73	=73
0r	1e	2.c	2g
.	.	.	2a
.	.	4c	.
.	1r	2d	2b
.	.	2e	[2cc
=74	=74	=74	=74
0r	0r	2f	2cc]
.	.	1g	2b-
.	.	.	1a
.	.	2f	.
=75	=75	=75	=75
2r	2.c	0e	0g
2C	.	.	.
.	4d	.	.
4C	4e	.	.
4D	4f	.	.
4E	[2g	.	.
4F	.	.	.
=76	=76	=76	=76
4G	2g]	2d	1b-
4A	.	.	.
4B-	1f	2d	.
4c	.	.	.
2d	.	2.f	2.a
2D	2F	.	.
.	.	4e	4g
=77	=77	=77	=77
2.F	2.A	4d	1.f
.	.	4c	.
.	.	1c	.
4E	4G	.	.
2D	2F	.	.
2D	2F	2B	2f
=78	=78	=78	=78
1C	1G	1c	1e
2r	2r	2r	2r
[2C	[2c	[2e	[2g
=79	=79	=79	=79
2C]	2c]	2e]	2g]
2C	2c	2e	2g
1F	1c	1f	1a
=80	=80	=80	=80
2F	2c	2f	1a
2F	2c	2f	.
2G	2B-	2d	2r
2A	2A	2c	2cc
=81	=81	=81	=81
2B-	2G	4d	2b-
.	.	4e	.
1c	2F	4f	2a
.	.	4e	.
.	1G	4d	1g
.	.	4c	.
2B	.	2d	.
=82	=82	=82	=82
1c	1r	1e	1g
*-	*-	*-	*-
!!!CDT: 1525/^1526/-1594/2/2
!!!OCY: Italia
!!!AGN: Mass (Paraphrase)
!!!AST: renaissance, vocal
!!!ASW: Hymn
!!!PWK: Masses, Book 5
!!!RNB: Cadence finals: C
!!!YOR: Le Opere Complete, v. 15, p. 1
!!!YOO: Rome, Italy: Fratelli Scalera
!!!END: 1992//
!!!EED: John Miller
!!!YEC: Copyright 2000, John Miller
!!!YEN: United States of America
!!!YEM: Rights to all derivative electronic formats reserved.
!!!YEM: Refer to licensing agreement for further details.
!!!YEM: This file must be accompanied by the licensing agreement.
!!!YEM: A copy of the licensing agreement may be found at http://www.music-cog.ohio-state.edu/HumdrumDatabases/Palestrina/license.txt
!!!EMD: converted to Humdrum by Bret Aarden
